X: 1
T: Le Fifre, or Arigot in the third tone.
M: C |
L: 1/8
B: The Orography of Thoinot Arbeau (Lengres, France, 1589)
F: http: //graner.net/nicolas/arbeau/orcheso.abc
N: for more information: http://graner.net/nicolas/arbeau/
Z: Nicolas Graner <arbeau@graner.name> Sep. 2001
K: C
G2 G2 A2 B2 c2 z2 z2 z2 | G2 G2 A2 B2 c2 B2 c2 d2 | c2 d2 c2 BA B8 |
B2 AB cB AG A8 | A2 GA BA GF G8 | G2 F2 E2 D2 E8 | E2 D2 E2 F2 G8 |
C2 B, C DC B, C D2 E2 D2 E2 | F2 EF GF ED E2 DE E2 DE |
E2 DE E2 DC D8 | E2 D2 E2 F2 G8 | G2 E2 F2 G2 A8 | A2 F2 G2 A2 B8 |
B2 G2 A2 B2 c2 d2 c2 B2 | c2 d2 c2 B2 c4 c2 Bc |
dc Bc dc BA B4 B2 AB | cB AB cB AG A4 A2 GA | BA GA BA GF G8 |
G2 A2 G2 F2 E8 | E2 DE FE DC D8 | z8 z8 z8 z8 | z8 z8 z8 z8 |
C8 D8 | D2 CD ED CD E8 | E2 DE FE DE F8 | F2 EF GF EF G8 |
G2 FG AG FG A8 | A2 GA BA GA B8 | B2 AB cB AB c2 d2 c2 d2 |
c2 d2 c2 d2 c2 d2 c2 Bc | dc Bc dc BA B8 | B2 AB cB AB cB AB cB AB |
cB AB cB AG A8 | A2 B2 A2 B2 A2 B2 A2 F2 | G2 A2 B2 c2 d2 c2 B2 A2 |
G2 A2 B2 c2 d2 c2 B2 d2 | c16 | e16 | d2 c2 d2 e2 d2 c2 d2 e2 |
d2 c2 d2 e2 d2 c2 d2 e2 | d2 cd ed cd ed cd ed cB | c16 |
B2 A2 B2 A2 B2 A2 B2 G2 | A16 | A2 GA BA GA B2 AB c2 Bc | G8 | E8 |
E4 D2 C2 D8 | C2 D2 E2 F2 G2 z2 z2 z2 | C2 D2 E2 F2 G2 A2 G2 A2 |
B2 G2 A2 B2 c2 d2 c4 | B8 A8 | A2 GA BA GA BA GA BA GA |
BA GA BA GF G8 | z8 z8 | z8 z8 | E16 | E2 DE FE DC D8 |
G2 A2 G2 A2 B2 AB cB AB | c2 Bc dc Bc d2 B2 c2 d2 | e16 |
d2 e2 d2 e2 d2 e2 d2 B2 | c2 G2 A2 B2 c2 G2 A2 B2 | c16 |
c2 Bc dc Bc dc Bc dc Bc | A16 | A4 G2 F2 G8 |
C2 D2 E2 D2 E2 D2 E2 F2 | G2 FG AG FG AG FG AG FG |
A2 B2 A2 B2 A2 GA BA GA | B16 | d8 d2 cd ed cd | e2 d2 e2 d2 c8 |
B2 A2 B2 G2 A8 | A2 GA BA GA BA GA BA GA | BA GA BA GA B8 |
B4 A2 G2 A8 | c2 B2 A2 B2 A8 | B16 ||

